X: 336
T: Song zidibin shang qianxian
L: 1/16
M: 2/4
K: F
d2 d2 d f d c [I:setbarnb 1]| 
A2 c G F2 D2 | 
d2 d2 d f d c | 
A6d2 | 
d2 d2 d f d c | 
A2 c G F2 D2 | 
G G2 c A G F2 | 
D8 |]

@@@ Tune index: 9210
